!!!COM: Jules Massenet
!!!CNT: Francais
!!!TXO: Francais
!!!OTL: Sous les Branches
!!!LYR: Armand Silvestre
!!!ENC: Jacob Pegg
!!!YOR: Romantic French Song 1830-1870 - David Tunley, ed.,
!!!YOR: New York: Garland Publishing, Inc., 1995, Vol. 6
!!!ODT: 1868/
!!NB: Vocal melody and text only encoded.
!!NB: First instance of melodic material only encoded.
**kern	**silbe
*clef G2	*
*k[b-]	*
*M2/4	*
!!created: 12/22/03 12:03
!!proofed and posted: 1/22/04 9:44
!!edit time: 75 min.
=6	=6
8r	.
{16cc	{En
16a	a-
(16dd	-vril
16b-)	|
16b-	sous
16g	les
=7	=7
16cc	bran-
16a	-ches
16a	Au
16g	feuil-
(16g	-la-
16f)	|
16e	-ge
16d	fri-
=8	=8
8c}	-leux}
{16g	{En
16e	cher-
(16a	-chant
16f)	|
(gq	|
16f)	des
16d	per-
=9	=9
16g	-ven-
16e	-ches,
16cc	J’ai
16a	trou-
(16f	-ve/
16d)	|
16g	tes
16e	yeux
=10	=10
[2a	bleus.
=11	=11
2a_	|
=12	=12
4a]}	|}
4r	.
=13	=13
4r	.
8r	.
{16cc	{J’ai
16a	trou-
=14	=14
(16f	-ve/-
16d)	|
16g	tes
16e	yeux
8f}	bleus}
8r	.
=15	=15
2r	.
=16	=16
4r	.
4r	.
=17	=17
8.r	.
{16a	{Et
16a	j’ai
16a	vu
16a	tes
16a	mains
=18	=18
(4dd	blan-
8d)	-ches
(16e	Par-
16f)	|
=19	=19
8g	-mi
8cc	les
8a	lys
(gq	|
aq)	|
(16g	nei-
16f)	|
=20	=20
2g}	-geux}
=21	=21
8r	.
{16cc	{En
16a	a-
(16f	-vril
16d)	|
16g	sous
16e	les
=22	=22
[2a	bran-
=23	=23
2a_	|
=24	=24
4a]}	-ches}
4r	.
=25	=25
4r	.
8r	.
{16c	{Au
16a	feuil-
=26	=26
(16f	-la-
16d)	|
16g	-ge
16e	fri-
8f}	-leux}
8r	.
=27	=27
2r	.
=28	=28
4r	.
4r;	.
=29	=29
*k[b-e-a-d-g-]	*
8.r	.
{16e-	{Et
16e-	comme
16e-	un
16f	nid
16g-	joy-
=30	=30
16e-	-eux,
16e-	Ton
16f	pe-
16g-	-tit
8a-	coeur,
8b-	aux
=31	=31
8.dd-	cieux
16a-	Con-
16a-	-tait
16a-	ses
16g-	gai^-
16f	-te/s
=32	=32
(8e-	fran-
8g-	|
[4f)	-ches
=33	=33
*k[b-]	*
8f]}	|}
{16cc	{En
16a	a-
(16f	-vril,
16d)	|
16g	sous
16e	les
=34	=34
[2a	bran-
=35	=35
2a_	|
=36	=36
4a]}	-ches}
4r	.
!!37-38 like 25-26
=39	=39
4r	.
8r	.
{16a	{En
16a	a-
=40	=40
[4cc	-vril
8cc]}	|}
8r	.
=41	=41
4r	.
8r	.
{16a	{sous
16a	les
=42	=42
(4cc	bran-
8f)}	-ches}
8r	.
=43	=43
4r	.
8r	.
{16f	{Au
16f	feuil-
=44	=44
([2b-	-la-
=45	=45
4b-]	|
4dd	|
=46	=46
8c)}	-ge}
8r	.
{(gq	{fri-
aq	|
4g)	|
=47	=47
4f}	-leux.}
4r	.
*-	*-
